X: 16477
T: Hag's Purse, The
R: jig
M: 6/8
K: Dmixolydian
|:A2D FED|A2B cAF|G2E EDE|c2d cAG|
A2D FED|A2B cAF|GEE cEE|DED D2:|
|:A|d2e fed|e2d cAF|G2E EDE|c2d cAG|
d2e fed|e2d cAF|GEE cEE|DED D2:|

